!!!COM: tim-mcmorris
!!!OTL: overwhelmed
!!!RNB: hooktheoryid: ZdPoDqLAmnM
**kern	**text
*clefG2	*
*k[f#c#g#d#a#]	*
*M4/4	*
=1	=1
4.r	G#m
8B	.
8c#	.
4d#	.
[8c#	.
=2	=2
4c#]	E
4B	.
8c#	.
4d#	.
[8c#	.
=3	=3
4c#]	E
4B	.
8c#	.
4d#	.
[8c#	.
=4	=4
4c#]	E
4B	.
4f#	.
[4e	.
=5	=5
4e]	B
4r	.
2d#	.
=6	=6
1r	B
=7	=7
1r	B
=8	=8
4.r	B
8B	.
8c#	.
4d#	.
8c#	.
=9	=9
8c#	E
4.B	.
8c#	.
4d#	.
[8c#	.
=10	=10
4c#]	E
4B	.
8c#	.
4d#	.
[8c#	.
=11	=11
4c#]	E
4B	.
4c#	.
4B	.
=12	=12
2r	B
2B	.
=13	=13
1r	B
*-	*-